X: 6
T: Whelan's
R: jig
M: 6/8
L: 1/8
K: Edor
~e2e BAF|FEB AFD|~e2e BAF|dAF FED|
~E2E BAF|FEB AFA|BdB BAF|1dAF FED:|2dAF FEd||
BAB ~e2e|fed ~e2d|BAB ~g2e|fdB AFA|
BAB ~e2e|fed ~e2f|gbg eff|1edB AFA:|2edB AFD||


Tune 1447	Setting 14836

